icon/fa/face-dizzy.svg

<svg xmlns="http://www.w3.org/2000/svg" viewBox="0 0 512 512"><!--! Font Awesome Free 6.1.2 by @fontawesome - https://fontawesome.com License - https://fontawesome.com/license/free (Icons: CC BY 4.0, Fonts: SIL OFL 1.1, Code: MIT License) Copyright 2022 Fonticons, Inc.--><path d="M0 256C0 114.6 114.6 0 256 0s256 114.6 256 256-114.6 256-256 256S0 397.4 0 256zm256 160c35.3 0 64-28.7 64-64s-28.7-64-64-64-64 28.7-64 64 28.7 64 64 64zM100.7 155.3l36.7 36.7-36.7 36.7c-6.26 6.2-6.26 16.4 0 22.6 6.2 6.3 16.4 6.3 22.6 0l36.7-36.7 36.7 36.7c6.2 6.3 16.4 6.3 22.6 0 6.3-6.2 6.3-16.4 0-22.6L182.6 192l36.7-36.7c6.3-6.2 6.3-16.4 0-22.6-6.2-6.3-16.4-6.3-22.6 0L160 169.4l-36.7-36.7c-6.2-6.3-16.4-6.3-22.6 0-6.26 6.2-6.26 16.4 0 22.6zm192 0 36.7 36.7-36.7 36.7c-6.3 6.2-6.3 16.4 0 22.6 6.2 6.3 16.4 6.3 22.6 0l36.7-36.7 36.7 36.7c6.2 6.3 16.4 6.3 22.6 0 6.3-6.2 6.3-16.4 0-22.6L374.6 192l36.7-36.7c6.3-6.2 6.3-16.4 0-22.6-6.2-6.3-16.4-6.3-22.6 0L352 169.4l-36.7-36.7c-6.2-6.3-16.4-6.3-22.6 0-6.3 6.2-6.3 16.4 0 22.6z"/></svg>

<svg xmlns="http://www.w3.org/2000/svg" viewBox="0 0 512 512" height="1em" width="1em">
<!--! Font Awesome Free 6.1.2 by @fontawesome - https://fontawesome.com License - https://fontawesome.com/license/free (Icons: CC BY 4.0, Fonts: SIL OFL 1.1, Code: MIT License) Copyright 2022 Fonticons, Inc.-->
  <path d="M0 256C0 114.6 114.6 0 256 0C397.4 0 512 114.6 512 256C512 397.4 397.4 512 256 512C114.6 512 0 397.4 0 256zM256 416C291.3 416 320 387.3 320 352C320 316.7 291.3 288 256 288C220.7 288 192 316.7 192 352C192 387.3 220.7 416 256 416zM100.7 155.3L137.4 192L100.7 228.7C94.44 234.9 94.44 245.1 100.7 251.3C106.9 257.6 117.1 257.6 123.3 251.3L160 214.6L196.7 251.3C202.9 257.6 213.1 257.6 219.3 251.3C225.6 245.1 225.6 234.9 219.3 228.7L182.6 192L219.3 155.3C225.6 149.1 225.6 138.9 219.3 132.7C213.1 126.4 202.9 126.4 196.7 132.7L160 169.4L123.3 132.7C117.1 126.4 106.9 126.4 100.7 132.7C94.44 138.9 94.44 149.1 100.7 155.3zM292.7 155.3L329.4 192L292.7 228.7C286.4 234.9 286.4 245.1 292.7 251.3C298.9 257.6 309.1 257.6 315.3 251.3L352 214.6L388.7 251.3C394.9 257.6 405.1 257.6 411.3 251.3C417.6 245.1 417.6 234.9 411.3 228.7L374.6 192L411.3 155.3C417.6 149.1 417.6 138.9 411.3 132.7C405.1 126.4 394.9 126.4 388.7 132.7L352 169.4L315.3 132.7C309.1 126.4 298.9 126.4 292.7 132.7C286.4 138.9 286.4 149.1 292.7 155.3z"/>
</svg>
